src/assets/svg/icons/fa/nuevos/classic/duotone/gauge-simple-max classic duotone.svg

<svg xmlns="http://www.w3.org/2000/svg" viewBox="0 0 512 512"><!--! Font Awesome Pro 6.4.0 by @fontawesome - https://fontawesome.com License - https://fontawesome.com/license (Commercial License) Copyright 2023 Fonticons, Inc. --><defs><style>.fa-secondary{opacity:.4}</style></defs><path class="fa-primary" d="M411.4 227.6c11.3-7 26.1-3.5 33 7.8s3.5 26.1-7.8 33L319.1 341.2c.6 3.5 .9 7.1 .9 10.8c0 35.3-28.7 64-64 64s-64-28.7-64-64s28.7-64 64-64c14.1 0 27.2 4.6 37.8 12.4l117.6-72.8z"/><path class="fa-secondary" d="M0 256a256 256 0 1 0 512 0A256 256 0 1 0 0 256zm192 96c0-35.3 28.7-64 64-64c14.1 0 27.2 4.6 37.8 12.4l117.5-72.8c11.3-7 26.1-3.5 33 7.8s3.5 26.1-7.8 33L319.1 341.2c.6 3.5 .9 7.1 .9 10.8c0 35.3-28.7 64-64 64s-64-28.7-64-64z"/></svg>

<svg xmlns="http://www.w3.org/2000/svg" viewBox="0 0 512 512"><defs><style>.fa-secondary{opacity:.4}</style></defs><path class="fa-primary" d="M411.4 227.6C422.6 220.6 437.4 224.1 444.4 235.4C451.4 246.6 447.9 261.4 436.6 268.4L319.1 341.2C319.7 344.7 320 348.3 320 352C320 387.3 291.3 416 256 416C220.7 416 192 387.3 192 352C192 316.7 220.7 288 256 288C270.1 288 283.2 292.6 293.8 300.4L411.4 227.6z"/><path class="fa-secondary" d="M256 0C397.4 0 512 114.6 512 256C512 397.4 397.4 512 256 512C114.6 512 0 397.4 0 256C0 114.6 114.6 0 256 0zM192 352C192 387.3 220.7 416 256 416C291.3 416 320 387.3 320 352C320 348.3 319.7 344.7 319.1 341.2L436.6 268.4C447.9 261.4 451.4 246.6 444.4 235.4C437.4 224.1 422.6 220.6 411.4 227.6L293.8 300.4C283.2 292.6 270.1 288 256 288C220.7 288 192 316.7 192 352V352z"/></svg>
